brandFactory_export/2.Regular/Presentacion _2regular.svg

<?xml version="1.0" encoding="UTF-8"?>
<svg width="24px" height="24px" viewBox="0 0 24 24" version="1.1" xmlns="http://www.w3.org/2000/svg" xmlns:xlink="http://www.w3.org/1999/xlink">
    <title>2.Regular/Presentacion _2regular</title>
    <g id="Symbols" stroke="none" stroke-width="1" fill="none" fill-rule="evenodd">
        <g id="2.Regular/Presentacion-_2regular" fill="#5CB615" fill-rule="nonzero">
            <path d="M22.302521,6.14117647 L22.312605,5.70420168 C22.1882353,5.67731092 22.0605042,5.67058824 21.9327731,5.67731092 L3.70084034,5.66722689 C3.58655462,5.66386555 3.47226891,5.68403361 3.36470588,5.7210084 L3.36470588,6.15798319 C3.43865546,6.17478992 3.56302521,6.19159664 3.73445378,6.18487395 L4.35630252,6.18487395 C4.41008403,6.18487395 4.45714286,6.17478992 4.50084034,6.17478992 L21.1193277,6.18487395 C21.1831933,6.17478992 21.2369748,6.19159664 21.2907563,6.19159664 L21.9663866,6.19159664 C22.0806723,6.19495798 22.194958,6.17815126 22.302521,6.14117647 L22.302521,6.14117647 Z M21.4084034,17.6403361 L21.4184874,7.57983193 C21.3915966,7.52941176 21.3277311,7.51260504 21.2369748,7.50252101 L4.44705882,7.49243697 C4.3394958,7.5092437 4.25546218,7.55966387 4.25546218,7.58655462 L4.25546218,17.6369748 C4.28235294,17.707563 4.36302521,17.7344538 4.51764706,17.7344538 L21.1630252,17.7445378 C21.3176471,17.7445378 21.3983193,17.6638655 21.4084034,17.6403361 L21.4084034,17.6403361 Z M12.7966387,22.487395 C13.2201681,22.4773109 13.2201681,22.2621849 13.2201681,22.1142857 C13.2201681,21.9731092 13.2201681,21.7378151 12.8605042,21.7310924 L12.789916,21.7310924 C12.4739496,21.7310924 12.4470588,21.912605 12.4470588,22.1042017 C12.4436975,22.2554622 12.4436975,22.4806723 12.7966387,22.487395 Z M12.2890756,2.94789916 L9.65378151,4.35966387 L15.8823529,4.3697479 L13.4285714,2.92773109 C13.2537815,2.99159664 13.0722689,3.02521008 12.887395,3.02521008 L12.7865546,3.02521008 C12.6252101,3.02521008 12.4537815,2.99831933 12.2890756,2.94789916 Z M12.7865546,1.13277311 C12.4705882,1.14285714 12.4436975,1.31428571 12.4436975,1.5092437 C12.4436975,1.70084034 12.4705882,1.89243697 12.7966387,1.89243697 C13.2201681,1.88235294 13.2201681,1.66722689 13.2201681,1.51932773 C13.2201681,1.37815126 13.2201681,1.14285714 12.8605042,1.13613445 L12.7865546,1.13277311 L12.7865546,1.13277311 Z M23.3210084,4.78991597 C23.5361345,4.98151261 23.6537815,5.24369748 23.6638655,5.51260504 L23.6537815,6.3394958 C23.6537815,6.81344538 23.3008403,7.19663866 22.7428571,7.37815126 C22.7529412,7.43865546 22.7697479,7.5092437 22.7697479,7.57647059 L22.7596639,17.6369748 C22.7596639,18.410084 22.0470588,19.0487395 21.1630252,19.0487395 L13.5092437,19.0386555 L13.5092437,20.7226891 C14.0067227,20.9243697 14.3932773,21.3781513 14.3932773,22.1109244 C14.3932773,23.1294118 13.6369748,23.6033613 12.887395,23.6201681 L12.7697479,23.6201681 C12.0302521,23.610084 11.2705882,23.1394958 11.2705882,22.1008403 C11.2705882,21.3579832 11.6571429,20.9142857 12.1579832,20.712605 L12.1579832,19.0386555 L4.55462185,19.0386555 C3.92941176,19.0621849 3.55294118,18.8268908 3.33445378,18.6285714 C3.05546218,18.3764706 2.89747899,18.0201681 2.90084034,17.6436975 L2.90084034,7.57983193 C2.90084034,7.51932773 2.91092437,7.45882353 2.91764706,7.39831933 C2.69243697,7.32773109 2.49411765,7.22352941 2.3394958,7.08235294 C2.13109244,6.89747899 2.01008403,6.62857143 2.00672269,6.34957983 L2.00672269,5.52268908 C2.00672269,4.85042017 2.71932773,4.36302521 3.69411765,4.36302521 L6.8605042,4.36302521 L11.3277311,1.97310924 C11.287395,1.82184874 11.2638655,1.66722689 11.2638655,1.5092437 C11.2638655,0.480672269 12.0201681,0.0100840336 12.7697479,0 L12.7697479,0.0100840336 L12.887395,0.0100840336 C13.6268908,0.0168067227 14.3865546,0.497478992 14.3865546,1.51932773 C14.3865546,1.67731092 14.3697479,1.81512605 14.3327731,1.9394958 L18.5109244,4.3697479 L21.912605,4.3697479 C22.5176471,4.34621849 23.0151261,4.50084034 23.3210084,4.78991597 L23.3210084,4.78991597 Z M16.9478992,15.3277311 C17.2201681,15.3277311 17.4453782,15.5361345 17.4453782,15.8084034 C17.4386555,16.0773109 17.2168067,16.292437 16.9478992,16.2890756 L7.4789916,16.2890756 C7.21008403,16.2957983 6.98823529,16.0806723 6.98151261,15.8117647 L6.98151261,9.98655462 C6.98151261,9.71428571 7.19663866,9.5092437 7.4789916,9.5092437 C7.7512605,9.5092437 7.97647059,9.71764706 7.97647059,9.98655462 L7.97647059,14.5310924 L9.41176471,12.3495798 C9.54285714,12.1546218 9.79159664,12.0773109 10.0067227,12.1647059 L13.0756303,13.307563 L15.0722689,10.8739496 L14.5378151,10.8739496 C14.2689076,10.8806723 14.0470588,10.6655462 14.0403361,10.3966387 L14.0403361,10.3932773 C14.0403361,10.1310924 14.2655462,9.91932773 14.5378151,9.91932773 L16.1445378,9.91932773 C16.389916,9.91932773 16.594958,10.087395 16.6420168,10.3226891 L16.8571429,11.7176471 C16.8907563,11.9831933 16.7058824,12.2285714 16.4403361,12.2689076 C16.4134454,12.2689076 16.3865546,12.2789916 16.3596639,12.2789916 C16.1176471,12.2789916 15.912605,12.1042017 15.8722689,11.8689076 L15.8184874,11.5226891 L13.6268908,14.1915966 C13.4857143,14.3495798 13.2605042,14.410084 13.0588235,14.3428571 L10.0268908,13.2067227 L8.62521008,15.3277311 L16.9478992,15.3277311 L16.9478992,15.3277311 Z" id="Presentacion-_2regular"></path>
        </g>
    </g>
</svg>

<svg width="24" height="24" viewBox="0 0 24 24" xmlns="http://www.w3.org/2000/svg"><path d="M22.303 6.141l.01-.437a1.438 1.438 0 00-.38-.027L3.7 5.667a.952.952 0 00-.336.054v.437c.074.017.198.034.37.027h.621c.054 0 .101-.01.145-.01l16.618.01c.064-.01.118.007.172.007h.675a.95.95 0 00.337-.05zm-.895 11.5l.01-10.061c-.026-.05-.09-.067-.181-.077l-16.79-.01c-.108.016-.192.067-.192.094v10.05c.027.07.108.097.263.097l16.645.01c.155 0 .235-.08.245-.104zm-8.611 4.846c.423-.01.423-.225.423-.373 0-.14 0-.376-.36-.383h-.07c-.316 0-.343.182-.343.373-.003.151-.003.377.35.383zm-.508-19.54L9.654 4.36l6.228.01-2.453-1.442a1.571 1.571 0 01-.542.097h-.1c-.162 0-.333-.027-.498-.077zm.498-1.814c-.316.01-.343.181-.343.376 0 .192.027.383.353.383.423-.01.423-.225.423-.373 0-.14 0-.376-.36-.383l-.073-.003zM23.32 4.79c.215.192.333.454.343.723l-.01.826c0 .474-.353.858-.911 1.04.01.06.027.13.027.197l-.01 10.061c0 .773-.713 1.412-1.597 1.412l-7.654-.01v1.684c.498.201.884.655.884 1.388 0 1.018-.756 1.492-1.506 1.51h-.117c-.74-.01-1.5-.482-1.5-1.52 0-.743.387-1.187.888-1.388v-1.674H4.555c-.626.023-1.002-.212-1.22-.41a1.309 1.309 0 01-.434-.985V7.58c0-.06.01-.121.017-.182a1.527 1.527 0 01-.579-.316 1 1 0 01-.332-.732v-.827c0-.673.712-1.16 1.687-1.16h3.167l4.467-2.39a1.796 1.796 0 01-.064-.464C11.264.481 12.02.01 12.77 0v.01h.117c.74.007 1.5.487 1.5 1.51 0 .157-.017.295-.054.42l4.178 2.43h3.402c.605-.024 1.102.13 1.408.42zm-6.373 10.538c.272 0 .497.208.497.48a.493.493 0 01-.497.481H7.479a.488.488 0 01-.497-.477V9.987c0-.273.215-.478.497-.478.272 0 .497.209.497.478v4.544l1.436-2.181a.494.494 0 01.595-.185l3.069 1.143 1.996-2.434h-.534a.488.488 0 01-.498-.477v-.004c0-.262.226-.474.498-.474h1.607c.245 0 .45.168.497.404l.215 1.395a.495.495 0 01-.417.55c-.027 0-.053.011-.08.011a.495.495 0 01-.488-.41l-.054-.346-2.191 2.669a.538.538 0 01-.568.15l-3.032-1.135-1.402 2.12h8.323z" fill="#5CB615" fill-rule="nonzero"/></svg>
